Papirus/24x24/panel/copyq-busy.svg

<?xml version="1.0" encoding="UTF-8" standalone="no"?>
<svg xmlns:osb="http://www.openswatchbook.org/uri/2009/osb" xmlns:dc="http://purl.org/dc/elements/1.1/" xmlns:cc="http://creativecommons.org/ns#" xmlns:rdf="http://www.w3.org/1999/02/22-rdf-syntax-ns#" xmlns:svg="http://www.w3.org/2000/svg" xmlns="http://www.w3.org/2000/svg" height="24" id="svg7384" style="enable-background:new" version="1.1" width="24">
    <metadata id="metadata90">
        <rdf:RDF>
            <cc:Work rdf:about="">
                <dc:format>
                    image/svg+xml
                </dc:format>
                <dc:type rdf:resource="http://purl.org/dc/dcmitype/StillImage"/>
                <dc:title>
                    Paper Symbolic Icon Theme
                </dc:title>
            </cc:Work>
        </rdf:RDF>
    </metadata>
    <title id="title8473">
        Paper Symbolic Icon Theme
    </title>
    <defs id="defs7386">
        <linearGradient id="linearGradient5606" osb:paint="solid">
            <stop id="stop5608" offset="0" style="stop-color:#ffffff;stop-opacity:1;"/>
        </linearGradient>
        <filter id="filter7554" style="color-interpolation-filters:sRGB">
            <feBlend id="feBlend7556" in2="BackgroundImage" mode="darken"/>
        </filter>
    </defs>
    <path id="rect4248" d="M 8.5,4 C 6.5670034,4 5,5.5670034 5,7.5 5,9.432997 6.5670034,11 8.5,11 8.7603516,10.9989 9.019769,10.96878 9.2734375,10.91016 L 11,13.5 c -2.25,3.5 1,6.5 1,6.5 0,0 3.25,-3 1,-6.5 l 1.728516,-2.589844 C 14.981548,10.968634 15.240302,10.998767 15.5,11 17.432997,11 19,9.432997 19,7.5 19,5.5670034 17.432997,4 15.5,4 13.567003,4 12,5.5670034 12,7.5 c 0.0012,0.8060795 0.280612,1.587036 0.791016,2.210938 L 12,11 11.210938,9.712891 C 11.721063,9.088205 11.999795,8.3065111 12,7.5 12,5.5670034 10.432997,4 8.5,4 Z m 0,2 C 9.3284271,6 10,6.6715729 10,7.5 10,8.3284271 9.3284271,9 8.5,9 7.6715729,9 7,8.3284271 7,7.5 7,6.6715729 7.6715729,6 8.5,6 Z m 7,0 C 16.328427,6 17,6.6715729 17,7.5 17,8.3284271 16.328427,9 15.5,9 14.671573,9 14,8.3284271 14,7.5 14,6.6715729 14.671573,6 15.5,6 Z" style="opacity:1;fill:#ffffff;fill-opacity:1;stroke:none"/>
</svg>

<?xml version="1.0" encoding="UTF-8" standalone="no"?>
<svg id="svg7384" xmlns:rdf="http://www.w3.org/1999/02/22-rdf-syntax-ns#" style="enable-background:new" xmlns="http://www.w3.org/2000/svg" xmlns:osb="http://www.openswatchbook.org/uri/2009/osb" height="24" width="24" version="1.1" xmlns:cc="http://creativecommons.org/ns#" xmlns:dc="http://purl.org/dc/elements/1.1/">
 <metadata id="metadata90">
  <rdf:RDF>
   <cc:Work rdf:about="">
    <dc:format>image/svg+xml</dc:format>
    <dc:type rdf:resource="http://purl.org/dc/dcmitype/StillImage"/>
   </cc:Work>
  </rdf:RDF>
 </metadata>
 <path id="rect4248" d="m8.5 4c-1.933 0-3.5 1.567-3.5 3.5s1.567 3.5 3.5 3.5c0.2604-0.001 0.5198-0.031 0.7734-0.09l1.7266 2.59c-2.25 3.5 1 6.5 1 6.5s3.25-3 1-6.5l1.7285-2.5898c0.254 0.059 0.512 0.089 0.772 0.09 1.933 0 3.5-1.567 3.5-3.5s-1.567-3.5-3.5-3.5-3.5 1.567-3.5 3.5c0.0012 0.80608 0.28061 1.587 0.79102 2.2109l-0.791 1.2891-0.789-1.2871c0.51-0.6247 0.789-1.4064 0.789-2.2129 0-1.933-1.567-3.5-3.5-3.5zm0 2c0.8284 0 1.5 0.6716 1.5 1.5s-0.6716 1.5-1.5 1.5-1.5-0.6716-1.5-1.5 0.6716-1.5 1.5-1.5zm7 0c0.828 0 1.5 0.6716 1.5 1.5s-0.672 1.5-1.5 1.5-1.5-0.6716-1.5-1.5 0.672-1.5 1.5-1.5z" fill="#fff"/>
</svg>
